view/frontend/web/images/step4.svg

<svg width="37" height="37" viewBox="0 0 37 37" fill="none" xmlns="http://www.w3.org/2000/svg">
<path d="M36.8571 18.0729C36.8571 28.0141 28.7982 36.0729 18.8571 36.0729C8.91593 36.0729 0.857056 28.0141 0.857056 18.0729C0.857056 8.13181 8.91593 0.072937 18.8571 0.072937C28.7982 0.072937 36.8571 8.13181 36.8571 18.0729ZM2.83706 18.0729C2.83706 26.9205 10.0095 34.0929 18.8571 34.0929C27.7047 34.0929 34.8771 26.9205 34.8771 18.0729C34.8771 9.22534 27.7047 2.05294 18.8571 2.05294C10.0095 2.05294 2.83706 9.22534 2.83706 18.0729Z" fill="#C4C4C4"/>
<path d="M36.8571 18.0729C36.8571 28.0141 28.7982 36.0729 18.8571 36.0729C8.91593 36.0729 0.857056 28.0141 0.857056 18.0729C0.857056 8.13181 8.91593 0.072937 18.8571 0.072937C28.7982 0.072937 36.8571 8.13181 36.8571 18.0729ZM2.83706 18.0729C2.83706 26.9205 10.0095 34.0929 18.8571 34.0929C27.7047 34.0929 34.8771 26.9205 34.8771 18.0729C34.8771 9.22534 27.7047 2.05294 18.8571 2.05294C10.0095 2.05294 2.83706 9.22534 2.83706 18.0729Z" fill="#0B1643"/>
</svg>

<svg xmlns="http://www.w3.org/2000/svg" xmlns:xlink="http://www.w3.org/1999/xlink" width="37" height="37" fill="none" xmlns:v="https://vecta.io/nano"><g clip-path="url(#A)"><circle cx="19" cy="18" r="17" fill="#fff"/><use xlink:href="#B" fill="#c4c4c4"/><use xlink:href="#B" fill="#0b1643"/></g><defs><clipPath id="A"><path fill="#fff" d="M0 0h37v37H0z"/></clipPath><path id="B" d="M36.857 18.073c0 9.941-8.059 18-18 18s-18-8.059-18-18 8.059-18 18-18 18 8.059 18 18zm-34.02 0c0 8.848 7.172 16.02 16.02 16.02s16.02-7.172 16.02-16.02-7.172-16.02-16.02-16.02-16.02 7.172-16.02 16.02z"/></defs></svg>
